stories/assets/dashboard.svg

<svg height="512pt" viewBox="0 0 512 512" width="512pt" xmlns="http://www.w3.org/2000/svg"><path d="m197.332031 0h-160c-20.585937 0-37.332031 16.746094-37.332031 37.332031v96c0 20.589844 16.746094 37.335938 37.332031 37.335938h160c20.589844 0 37.335938-16.746094 37.335938-37.335938v-96c0-20.585937-16.746094-37.332031-37.335938-37.332031zm0 0"/><path d="m197.332031 213.332031h-160c-20.585937 0-37.332031 16.746094-37.332031 37.335938v224c0 20.585937 16.746094 37.332031 37.332031 37.332031h160c20.589844 0 37.335938-16.746094 37.335938-37.332031v-224c0-20.589844-16.746094-37.335938-37.335938-37.335938zm0 0"/><path d="m474.667969 341.332031h-160c-20.589844 0-37.335938 16.746094-37.335938 37.335938v96c0 20.585937 16.746094 37.332031 37.335938 37.332031h160c20.585937 0 37.332031-16.746094 37.332031-37.332031v-96c0-20.589844-16.746094-37.335938-37.332031-37.335938zm0 0"/><path d="m474.667969 0h-160c-20.589844 0-37.335938 16.746094-37.335938 37.332031v224c0 20.589844 16.746094 37.335938 37.335938 37.335938h160c20.585937 0 37.332031-16.746094 37.332031-37.335938v-224c0-20.585937-16.746094-37.332031-37.332031-37.332031zm0 0"/></svg>

<svg xmlns="http://www.w3.org/2000/svg" width="512pt" height="512pt" viewBox="0 0 512 512"><path d="M197.332 0h-160C16.746 0 0 16.746 0 37.332v96c0 20.59 16.746 37.336 37.332 37.336h160c20.59 0 37.336-16.746 37.336-37.336v-96C234.668 16.746 217.922 0 197.332 0zM197.332 213.332h-160C16.746 213.332 0 230.078 0 250.668v224C0 495.254 16.746 512 37.332 512h160c20.59 0 37.336-16.746 37.336-37.332v-224c0-20.59-16.746-37.336-37.336-37.336zM474.668 341.332h-160c-20.59 0-37.336 16.746-37.336 37.336v96c0 20.586 16.746 37.332 37.336 37.332h160C495.254 512 512 495.254 512 474.668v-96c0-20.59-16.746-37.336-37.332-37.336zM474.668 0h-160c-20.59 0-37.336 16.746-37.336 37.332v224c0 20.59 16.746 37.336 37.336 37.336h160c20.586 0 37.332-16.746 37.332-37.336v-224C512 16.746 495.254 0 474.668 0zm0 0"/></svg>
